X:1241
T:The Boyne Hunt
M:C|
L:1/8
R:Reel
B:O'Neill's 1241
N:Collected by F. O'Neill
Z:Transcribed by Trish O'Neil
K:D
~BAFA DAFA|DAFA|BEEB|~BAFA DAFA|ABde fddB|
~BAFA DAFA|DAFA|BEEB|~BAFA DAFA|ABde fddg||
fab3aga bgaf|dfaf gfeg|fab3aga bgaf|ABde fd 3dcd|
fab3aga bgaf|dfaf gfeg|fgef dedB|ABde fddg||
fdad bdad|fdad ceeg|fdad bdad|ABde fddg|
fdad bdad|fdad ceeg|fgef dedB|ABde fddB||
